tenants/vtwonen/icons/bars.svg

<svg fill="none" height="24" viewBox="0 0 24 24" width="24" xmlns="http://www.w3.org/2000/svg"><path d="m2.26786 6.46573h19.46424c.0824 0 .1625-.02878.2225-.08159.0602-.05299.0954-.12633.0954-.20436v-.94382c0-.07804-.0352-.15138-.0954-.20437-.06-.05281-.1401-.08159-.2225-.08159h-19.46424c-.0824 0-.1625.02878-.22246.08159-.06016.05299-.0954.12633-.0954.20437v.94382c0 .07803.03524.15137.0954.20436.05996.05281.14006.08159.22246.08159zm0 6.29217h19.46424c.0824 0 .1625-.0288.2225-.0816.0602-.053.0954-.1264.0954-.2044v-.9438c0-.078-.0352-.1514-.0954-.2044-.06-.0528-.1401-.0816-.2225-.0816h-19.46424c-.0824 0-.1625.0288-.22246.0816-.06016.053-.0954.1264-.0954.2044v.9438c0 .078.03524.1514.0954.2044.05996.0528.14006.0816.22246.0816zm0 6.2921h19.46424c.0824 0 .1625-.0288.2225-.0816.0602-.053.0954-.1263.0954-.2044v-.9438c0-.078-.0352-.1513-.0954-.2043-.06-.0529-.1401-.0816-.2225-.0816h-19.46424c-.0824 0-.1625.0287-.22246.0816-.06016.053-.0954.1263-.0954.2043v.9438c0 .0781.03524.1514.0954.2044.05996.0528.14006.0816.22246.0816z" fill="#000" stroke="#000" stroke-width=".1"/></svg>

<svg width="24" height="24" viewBox="0 0 24 24" fill="none" xmlns="http://www.w3.org/2000/svg">
<path d="M2.26786 6.46573H21.7321C21.8145 6.46573 21.8946 6.43695 21.9546 6.38414C22.0148 6.33115 22.05 6.25781 22.05 6.17978V5.23596C22.05 5.15792 22.0148 5.08458 21.9546 5.03159C21.8946 4.97878 21.8145 4.95 21.7321 4.95H2.26786C2.18546 4.95 2.10536 4.97878 2.0454 5.03159C1.98524 5.08458 1.95 5.15792 1.95 5.23596V6.17978C1.95 6.25781 1.98524 6.33115 2.0454 6.38414C2.10536 6.43695 2.18546 6.46573 2.26786 6.46573ZM2.26786 12.7579H21.7321C21.8145 12.7579 21.8946 12.7291 21.9546 12.6763C22.0148 12.6233 22.05 12.5499 22.05 12.4719V11.5281C22.05 11.4501 22.0148 11.3767 21.9546 11.3237C21.8946 11.2709 21.8145 11.2421 21.7321 11.2421H2.26786C2.18546 11.2421 2.10536 11.2709 2.0454 11.3237C1.98524 11.3767 1.95 11.4501 1.95 11.5281V12.4719C1.95 12.5499 1.98524 12.6233 2.0454 12.6763C2.10536 12.7291 2.18546 12.7579 2.26786 12.7579ZM2.26786 19.05H21.7321C21.8145 19.05 21.8946 19.0212 21.9546 18.9684C22.0148 18.9154 22.05 18.8421 22.05 18.764V17.8202C22.05 17.7422 22.0148 17.6689 21.9546 17.6159C21.8946 17.563 21.8145 17.5343 21.7321 17.5343H2.26786C2.18546 17.5343 2.10536 17.563 2.0454 17.6159C1.98524 17.6689 1.95 17.7422 1.95 17.8202V18.764C1.95 18.8421 1.98524 18.9154 2.0454 18.9684C2.10536 19.0212 2.18546 19.05 2.26786 19.05Z" fill="black" stroke="black" stroke-width="0.1"/>
</svg>
